X:1
T:Title
%%score { ( 1 3 5 ) | ( 2 4 6 ) }
L:1/8
Q:1/4=100
M:4/4
K:Db
V:1 treble nm="Grand Piano"
V:3 treble 
V:5 treble 
V:2 bass 
V:4 bass 
V:6 bass 
V:1
 F>E D>E F2 [FA]2 | [FB]>F F>_F =F4 | G>F [CE]>[CF] [CG]2 [Gc]2 | [FB]>[FA] [FA]>[_F=G] [=FA]4 | %4
w: Mrs.~C.~H.~Morris * * * * *||||
 F>F F>E [CE]2 [B,D]2 | [B,D]>[B,D] [B,G]>[DB] [DA]4 | %6
w: ||
 [Fd]>[Ad] [=Gd]>[_Gd] [Fd]>[A,FA] [A,D]>[B,DE] | %7
w: |
[M:11/16] [DF]-<[DF][K:bass][G,CE]-<[G,CE][F,A,D]3/2 |[M:5/16] z5/2 | %9
w: ||
[M:4/4][K:treble] [A,DF]2 [A,DF]2 [A,DF]2 [A,DF]2 | A>A A>=G A>D C>[K:bass]B, | %11
w: ||
 z z/[K:treble] A/ A>A A>D C>[K:bass]B, | z z/[K:treble] A/ A>A A>[K:bass]A,, B,,>C, | %13
w: ||
 F2 [DF]2 [DF]2 [DF]2 | A>A A>=G A>[K:bass]A, =G,>F, | E2[K:treble] E2 z4 | %16
w: |||
[M:35/32] E2 F2 G-G/4-(3:2:9G-G/4-G/16 z3/8 z/16 A3/8-A/16 z3/8 z/16 (3:2:4B3/2-B/4c3/4-c/8 | %17
w: |
[M:4/4] (3:2:2[Fd]3 [Fc]3 z4 | z4 (5:4:5=F2 d/ c/-c3/2B/ | z4 (5:4:5C2 d/ c/-c3/2B/ | %20
w: |||
 z4 (5:4:5A,2 A/ B/-B3/2c/ | z4 e2- e/4 z/4 z/ z | (7:8:4d3/2B/ B3 d2 | %23
w: |||
[M:9/8] z3 z g2- g-g/4 z/4 z/ z |[M:4/4] z8 |] %25
w: ||
V:2
 [D,A,D]>[D,G,D] [D,F,]>[D,G,D] [D,A,D]2 [D,D]2 | [D,D]>[D,A,D] [D,A,D]>[D,=G,D] [D,A,D]4 | %2
 [E,A,C]>[E,A,C] [A,,A,]>[A,,A,] [A,,A,]2 [A,,A,]2 | [D,A,]>[D,D] [D,D]>[D,D] [D,D]4 | %4
 [D,A,D]>[D,A,D] [F,=A,C]>[F,A,C] [B,,B,]2 [B,,F,]2 | [G,,G,]>[G,,G,] [G,,G,]>[G,,G,] [D,F,]4 | %6
 [D,A,]>[D,_C] [D,B,]>[D,=A,] [D,_A,]>D, F,>G, |[M:11/16] A,-<A,A,,-<A,,D,3/2 | %8
[M:5/16] A,,<B,,C,/ |[M:4/4] D,2 C,2 B,,2 A,,2 | %10
 [F,DF]>[F,DF] [F,DF]>[_F,D_F][K:treble] [=F,D=F]2 z2 | z z/ [CE]/ [CE]>[CE] [CE]2 z2 | %12
 z z/ [DF]/ [DF]>[DF] [DF]2 z2 | [D,A,D]2 [C,A,]2 [B,,A,]2 [A,,A,]2 | %14
 [F,DF]>[F,DF] [F,DF]>[_F,D_F] [=F,DF]2 z2 | [E,A,C]2 [E,A,C]2 [B,D]2 [E,B,D]2 | %16
[M:35/32][K:treble] [A,C]2 [A,D]2 [A,E]-[A,E]/4-(3:2:9[A,E]-[A,E]/4-[A,E]/16 z3/8 z/16 G3/8-G/16 z3/8 z/16 (3:2:4G3/2-G/4G3/4-G/8 | %17
[M:4/4][K:bass] (3:2:2[D,A,]3 [A,,A,]3 z4 | %18
 (9:8:8[D,A,]2 [A,,A,]2 D/ [D,A,D]3/2[K:treble]F/F/-F3/2F/ | E4- E3/2-E/4 z/4 z2 | %20
 D4- D3/2-D/4[K:treble] z/4 z2 | (5:4:5[D,A,]2 [D,A,]/ [D,A,]/-[D,A,]3/2[D,A,]/ [D,_C]2 [D,C]2 | %22
 (7:8:4[G,B,G]3/2[G,DG]/ [G,DG]3 [=G,D_F]2 |[M:9/8] z3 z3 z G2- |[M:4/4] G3/4 z/4 z z2 z4 |] %25
V:3
 x8 | x8 | x8 | x8 | x8 | x8 | x8 |[M:11/16] x2[K:bass] x7/2 |[M:5/16] x5/2 |[M:4/4][K:treble] x8 | %10
 x15/2[K:bass] x/ | G,6[K:treble] z2[K:bass] | F,6[K:treble][K:bass] z2 | x8 | x11/2[K:bass] x5/2 | %15
 z z/ E,/[K:treble] z z/ C/ E2 E2 |[M:35/32] x35/4 |[M:4/4] z4 (3:2:2[FB]3 [FA]3 | %18
 (5:4:5[DF]2 [DF]/ [DF]/-[DF]3/2_F/ z4 | G4- G3/2-G/4 z/4 z2 | F4- F3/2-F/4 z/4 z2 | %21
 (5:4:5[Fd]2 [Fd]/ [Fd]/-[Fd]3/2[Fd]/ F2 [Fd]2 | x8 |[M:9/8] z3 z/ f/-f/4 z/4 z/ z z c2- | %24
[M:4/4] c3/4 z/4 z z2 z4 |] %25
V:4
 x8 | x8 | x8 | x8 | x8 | x8 | x8 |[M:11/16] x11/2 |[M:5/16] x5/2 |[M:4/4] x8 | x4[K:treble] x4 | %11
 x8 | x8 | x8 | x8 | x8 |[M:35/32][K:treble] x35/4 |[M:4/4][K:bass] z4 (3:2:2[D,A,]3 [A,,A,]3 | %18
 x5[K:treble] x171/64 | z4 (5:4:5A,2 G/ E/-E3/2C/ | %20
 z4 (5:4:5D,2[K:treble] [A,CG]/ [A,CG]/-[A,CG]3/2[A,G]/ | x8 | x8 | %23
[M:9/8] z3 z/ [A,A]/ [CA]2- [CA]-[CA]/4 z/4 z/ z |[M:4/4] x8 |] %25
V:5
 x8 | x8 | x8 | x8 | x8 | x8 | x8 |[M:11/16] x2[K:bass] x7/2 |[M:5/16] x5/2 |[M:4/4][K:treble] x8 | %10
 x15/2[K:bass] x/ | x3/2[K:treble] x6[K:bass] x/ | x3/2[K:treble] x4[K:bass] x5/2 | x8 | %14
 x11/2[K:bass] x5/2 | x2[K:treble] x6 |[M:35/32] x35/4 |[M:4/4] x8 | x8 | %19
 (5:4:5z2 C/ C/-C3/2C/ z4 | (5:4:5z2 A,/ A,/-A,3/2A,/ z4 | x8 | x8 | %23
[M:9/8] (4:3:4A2 d/e/-e- e3/4 z/4 z z z3 |[M:4/4] [Fd]6- [Fd]/4 z/4 z/ z |] %25
V:6
 x8 | x8 | x8 | x8 | x8 | x8 | x8 |[M:11/16] x11/2 |[M:5/16] x5/2 |[M:4/4] x8 | x4[K:treble] x4 | %11
 x8 | x8 | x8 | x8 | x8 |[M:35/32][K:treble] x35/4 |[M:4/4][K:bass] x8 | x5[K:treble] x171/64 | %19
 (5:4:5z2 A,/ A,/-A,3/2A,/ z4 | (5:4:5z2 D,/ D,/-D,3/2D,/ z4[K:treble] | x8 | x8 | %23
[M:9/8] (4:3:4[A,DF]2 [A,DF]/[A,DG]/-[A,DG]- [A,DG-]/[D-G]/4D/4-[A,-D]/<A,/-A,- A, A,2 | %24
[M:4/4] [D,A,]6- [D,A,]/4 z/4 z/ z |] %25

